X:0428
T:La Nov\'ell\'e Hol\'endoise.
N:Aird gives alternate notes for violin and flute
M:2/4
L:1/16
Q:1/4=112
I: :: ::
Z:Jack Campin * www.campin.me.uk * 2009
K:G
D2|  G4      d4    | B2AB   G2AB  |    c2B2A2G2         |(FGAF)  D2D2  |
     E4     TF4    | G3A    G2c2  |({c}B2)(AG)   (FGA).F| G4     G2   ::
d2| (ded).c .B2.d2 |(ded)c .B2.d2 |    e2d2e2f2         | g4     d2(ef)|
  {a}g2(fe)  d2(cB)| e2(dc) B2(AB)|   .c2.B2.A2.G2      |(FGA)F .D2.D2 |
    [E4C4]  [F4B,4]|(GFG)A .G2.c2 |    B2(AG)    (FGAF) | G4     G2   :|

